assets/One-piece swimsuit/Flat/one-piece_swimsuit_flat.svg

<svg width="32" height="32" viewBox="0 0 32 32" fill="none" xmlns="http://www.w3.org/2000/svg">
<path d="M20.0095 6.08998H21.0795C21.3288 6.08998 21.5679 5.99095 21.7442 5.81466C21.9205 5.63838 22.0195 5.39928 22.0195 5.14998V2.89998C22.0195 2.66129 22.1143 2.43237 22.2831 2.26358C22.4519 2.0948 22.6808 1.99998 22.9195 1.99998H23.1095C23.3482 1.99998 23.5771 2.0948 23.7459 2.26358C23.9147 2.43237 24.0095 2.66129 24.0095 2.89998V8.89998C24.0095 8.89998 24.0095 8.95998 24.0095 8.99998C24.0431 9.39405 24.0024 9.79093 23.8895 10.17L22.0795 16.5C22.0093 16.7558 22.0305 17.0281 22.1395 17.27L24.7895 23C24.8791 23.1946 24.907 23.412 24.8694 23.6229C24.8319 23.8338 24.7307 24.0282 24.5795 24.18L16.9484 29.33C16.4569 29.6862 15.8654 29.878 15.2584 29.878C14.6514 29.878 14.0599 29.6862 13.5684 29.33L6.41843 24.21C6.269 24.0501 6.17325 23.8476 6.14456 23.6306C6.11587 23.4137 6.15568 23.1932 6.25843 23L8.85843 17.27C8.96741 17.0281 8.98863 16.7558 8.91843 16.5L7.12843 10.15C7.01583 9.75718 6.97518 9.34725 7.00843 8.93998C7.00843 8.93998 7.00843 8.93998 7.00843 8.87998V2.87998C7.00843 2.76179 7.03171 2.64476 7.07694 2.53557C7.12217 2.42637 7.18846 2.32716 7.27203 2.24358C7.35561 2.16001 7.45482 2.09372 7.56401 2.04849C7.67321 2.00326 7.79024 1.97998 7.90843 1.97998H8.09843C8.33712 1.97998 8.56604 2.0748 8.73482 2.24358C8.90361 2.41237 8.99843 2.64129 8.99843 2.87998V5.14998C8.99843 5.39928 9.09746 5.63838 9.27375 5.81466C9.45003 5.99095 9.68913 6.08998 9.93843 6.08998H19.5384H20.0095Z" fill="#F70A8D"/>
<path d="M8.04929 13.4171L8.49548 15H22.5052L23.0795 13H7.93359L8.04929 13.4171Z" fill="#8D65C5"/>
<path d="M8.85835 17.27L8.5271 18H22.4771L22.1394 17.27C22.0305 17.0281 22.0092 16.7558 22.0794 16.5L22.2224 16H8.77741L8.91835 16.5C8.98855 16.7558 8.96733 17.0281 8.85835 17.27Z" fill="#8D65C5"/>
</svg>

<svg xmlns="http://www.w3.org/2000/svg" width="32" height="32" fill="none"><path fill="#F70A8D" d="M20.01 6.09h1.07a.94.94 0 0 0 .94-.94V2.9a.9.9 0 0 1 .9-.9h.19a.9.9 0 0 1 .9.9V9c.033.394-.008.79-.12 1.17l-1.81 6.33a1.14 1.14 0 0 0 .06.77L24.79 23a1.05 1.05 0 0 1-.21 1.18l-7.632 5.15a2.88 2.88 0 0 1-3.38 0l-7.15-5.12a1.05 1.05 0 0 1-.16-1.21l2.6-5.73a1.14 1.14 0 0 0 .06-.77l-1.79-6.35a3.39 3.39 0 0 1-.12-1.21V2.88a.9.9 0 0 1 .9-.9h.19a.9.9 0 0 1 .9.9v2.27a.94.94 0 0 0 .94.94H20.01Z"/><path fill="#8D65C5" d="M8.05 13.417 8.494 15h14.01l.575-2H7.933l.115.417ZM8.858 17.27l-.33.73h13.95l-.339-.73a1.14 1.14 0 0 1-.06-.77l.143-.5H8.777l.141.5c.07.256.05.528-.06.77Z"/></svg>
